symbolic/32x32/apps/inkscape.svg

<svg xmlns="http://www.w3.org/2000/svg" width="32" height="32" version="1">
 <path style="opacity:0.2;fill-rule:evenodd" d="M 15.998047,2.000028 C 15.143135,2.0003767 14.311444,2.3203134 13.65625,2.9980749 L 1.9960938,15.041044 C 1.3536141,15.705715 1.0127854,16.581807 1,17.449247 c -1.9218e-4,0.01319 0,0.04613 0,0.06055 -1.2097e-4,2.580774 6.4213452,0.07316 7.0429688,3.228515 C 8.3793295,22.446011 5,21.664652 5,23.38284 c 0,2.015489 6.434997,0.372166 7.785156,2.291016 1.033512,1.46883 -2.476242,1.531315 -1.65625,2.9375 0.7034,1.206247 3.018014,0.433495 3.4375,2.054688 0.479149,1.851859 3.362638,1.646053 5.105469,0.177734 1.068368,-0.900089 -1.211054,-1.4645 -0.240234,-2.46875 0.970756,-1.00432 4.826744,-0.814347 4.568359,-2.994141 -0.171003,-1.442614 -1.843453,-1.602896 -1.871094,-3.232421 -0.09653,-1.380014 1.848681,-0.97623 6.820313,-2.34961 1.987938,-0.93399 2.058352,-1.430851 2.050781,-2.291016 -1.57e-4,-0.01705 0,-0.0404 0,-0.05859 -0.01132,-0.867369 -0.412272,-1.743553 -1.054688,-2.408203 L 18.341797,2.9980749 C 17.68646,2.3202423 16.854483,2.0003768 16,2.000028 Z m 12.833984,21.001953 c -0.212024,-0.0077 -0.42531,0.012 -0.576172,0.06055 -0.284365,0.09439 -1.632506,0.148666 -1.521484,1.328125 1.220485,0.589455 3.080943,1.058226 3.302734,-0.121094 0.166515,-0.884372 -0.568911,-1.240509 -1.205078,-1.267578 z M 6.4140625,26.03909 C 6.2951927,26.05537 6.2138311,26.112931 6.0976562,26.166044 5.1686561,26.590534 4.546136,27.484863 5.4140625,27.875028 6.2821171,28.2651 6.8640809,27.85094 7.625,27.367216 8.3860479,26.883254 8.3636375,26.796093 8.3085938,26.609403 8.2031003,26.634743 7.5117892,26.11604 6.7832031,26.03909 c -0.1214103,-0.01221 -0.2503032,-0.01628 -0.3691406,0 z"/>
 <path style="fill:#4f4f4f;fill-rule:evenodd" d="M 15.998047 1 C 15.143135 1.0003487 14.311444 1.3202854 13.65625 1.9980469 L 1.9960938 14.041016 C 1.3536141 14.705687 1.0127854 15.581779 1 16.449219 C 0.99980782 16.462409 1 16.495346 1 16.509766 C 0.99987903 19.09054 7.4213452 16.582929 8.0429688 19.738281 C 8.3793295 21.445983 5 20.664624 5 22.382812 C 5 24.398301 11.434997 22.754978 12.785156 24.673828 C 13.818668 26.142658 10.308914 26.205143 11.128906 27.611328 C 11.832306 28.817575 14.14692 28.044823 14.566406 29.666016 C 15.045555 31.517875 17.929044 31.312069 19.671875 29.84375 C 20.740243 28.943661 18.460821 28.37925 19.431641 27.375 C 20.402397 26.37068 24.258385 26.560653 24 24.380859 C 23.828997 22.938245 22.156547 22.777963 22.128906 21.148438 C 22.032376 19.768424 23.977587 20.172208 28.949219 18.798828 C 30.937157 17.864838 31.007571 17.367977 31 16.507812 C 30.999843 16.490762 31 16.467409 31 16.449219 C 30.98868 15.58185 30.587728 14.705666 29.945312 14.041016 L 18.341797 1.9980469 C 17.68646 1.3202143 16.854483 1.0003488 16 1 L 15.998047 1 z M 28.832031 22.001953 C 28.620007 21.994253 28.406721 22.01395 28.255859 22.0625 C 27.971494 22.15689 26.623353 22.211166 26.734375 23.390625 C 27.95486 23.98008 29.815318 24.448851 30.037109 23.269531 C 30.203624 22.385159 29.468198 22.029022 28.832031 22.001953 z M 6.4140625 25.039062 C 6.2951927 25.055342 6.2138311 25.112903 6.0976562 25.166016 C 5.1686561 25.590506 4.546136 26.484835 5.4140625 26.875 C 6.2821171 27.265072 6.8640809 26.850912 7.625 26.367188 C 8.3860479 25.883226 8.3636375 25.796065 8.3085938 25.609375 C 8.2031003 25.634715 7.5117892 25.116012 6.7832031 25.039062 C 6.6617928 25.026853 6.5328999 25.022783 6.4140625 25.039062 z"/>
 <path style="opacity:0.2;fill-rule:evenodd" d="m 16.053655,5.0713855 c 0.879785,0.00748 3.2905,2.9907858 5.441357,5.2250005 0.605,0.811785 -0.234015,1.643785 -0.234015,1.643785 l -4.505,-2.465714 -1.989285,2.700714 -1.755,-2.6414282 L 11.95814,13.643028 8.8574261,11.764457 9.6767118,10.707314 14.532426,5.7175283 C 14.90489,5.3378426 15.190112,5.0650212 16.05364,5.0717426 Z"/>
 <path style="fill:#ffffff;fill-rule:evenodd" d="m 16.053655,4.0713575 c 0.879785,0.00748 3.2905,2.9907858 5.441357,5.2250001 0.605,0.8117854 -0.234015,1.6437854 -0.234015,1.6437854 l -4.505,-2.465714 -1.989285,2.700714 -1.755,-2.6414282 L 11.95814,12.643 8.8574261,10.764429 9.6767118,9.707286 14.532426,4.7175003 C 14.90489,4.3378146 15.190112,4.0649932 16.05364,4.0717146 Z"/>
 <path style="fill:#ffffff;fill-rule:evenodd;opacity:0.1" d="M 15.998047 1 C 15.143135 1.0003487 14.311444 1.3202854 13.65625 1.9980469 L 1.9960938 14.041016 C 1.3536141 14.705687 1.0127854 15.581779 1 16.449219 C 0.99980782 16.462409 1 16.495346 1 16.509766 C 0.99999351 16.648261 1.027409 16.766104 1.0625 16.876953 C 1.1842862 16.206289 1.4953778 15.559026 1.9960938 15.041016 L 13.65625 2.9980469 C 14.311444 2.3202854 15.143135 2.0003487 15.998047 2 L 16 2 C 16.854483 2.0003488 17.68646 2.3202143 18.341797 2.9980469 L 29.945312 15.041016 C 30.504062 15.619103 30.863053 16.358177 30.958984 17.111328 C 30.998276 16.925099 31.001941 16.728303 31 16.507812 C 30.999843 16.490762 31 16.467409 31 16.449219 C 30.98868 15.58185 30.587728 14.705666 29.945312 14.041016 L 18.341797 1.9980469 C 17.68646 1.3202143 16.854483 1.0003488 16 1 L 15.998047 1 z M 7.9277344 20.402344 C 7.3409863 21.250414 5 20.950574 5 22.382812 C 5 22.561287 5.0652834 22.702016 5.1582031 22.828125 C 5.819568 21.826943 8.3354801 22.223358 8.0429688 20.738281 C 8.0182298 20.612706 7.970075 20.510658 7.9277344 20.402344 z M 22.208984 21.677734 C 22.144168 21.808353 22.115784 21.960833 22.128906 22.148438 C 22.154423 23.652713 23.566152 23.917269 23.919922 25.082031 C 23.999375 24.879178 24.03174 24.648624 24 24.380859 C 23.849689 23.112809 22.54268 22.832947 22.208984 21.677734 z M 28.832031 22.001953 C 28.620007 21.994253 28.406721 22.01395 28.255859 22.0625 C 27.971494 22.15689 26.623353 22.211166 26.734375 23.390625 C 26.832104 23.437825 26.949921 23.47271 27.054688 23.517578 C 27.445873 23.173408 28.071665 23.12364 28.255859 23.0625 C 28.406721 23.01395 28.620007 22.994253 28.832031 23.001953 C 29.248451 23.019672 29.703152 23.18154 29.923828 23.537109 C 29.969448 23.455924 30.016922 23.376872 30.037109 23.269531 C 30.203624 22.385159 29.468198 22.029022 28.832031 22.001953 z M 6.4140625 25.039062 C 6.2951927 25.055342 6.2138311 25.112903 6.0976562 25.166016 C 5.2379662 25.558836 4.6562978 26.349736 5.2597656 26.775391 C 5.4596247 26.54145 5.7570551 26.321647 6.0976562 26.166016 C 6.2138311 26.112903 6.2951927 26.055342 6.4140625 26.039062 C 6.5328999 26.022782 6.6617928 26.026853 6.7832031 26.039062 C 7.1115656 26.073743 7.4244942 26.200325 7.6875 26.324219 C 8.367769 25.884568 8.3616574 25.789349 8.3085938 25.609375 C 8.2031002 25.634715 7.5117892 25.116013 6.7832031 25.039062 C 6.6617928 25.026853 6.5328999 25.022784 6.4140625 25.039062 z M 12.753906 25.642578 C 12.159056 26.281506 10.54162 26.604205 11.128906 27.611328 C 11.156085 27.657936 11.190869 27.695377 11.222656 27.736328 C 11.84163 27.078245 13.548247 26.758334 12.785156 25.673828 C 12.776798 25.66195 12.762651 25.654185 12.753906 25.642578 z M 19.402344 28.410156 C 18.905078 28.963686 19.381418 29.384217 19.710938 29.804688 C 20.281222 29.281105 19.737478 28.867316 19.402344 28.410156 z"/>
</svg>

<svg xmlns="http://www.w3.org/2000/svg" width="32" height="32" version="1"><path style="opacity:.2;fill-rule:evenodd" d="M15.998 2a3.21 3.21 0 0 0-2.342.998L1.996 15.041A3.556 3.556 0 0 0 1 17.449v.06c0 2.582 6.421.074 7.043 3.23C8.379 22.445 5 21.664 5 23.382c0 2.015 6.435.372 7.785 2.29 1.034 1.47-2.476 1.532-1.656 2.938.703 1.207 3.018.434 3.437 2.055.48 1.852 3.363 1.646 5.106.178 1.068-.9-1.211-1.465-.24-2.469.97-1.004 4.826-.814 4.568-2.994-.171-1.443-1.843-1.603-1.871-3.233-.097-1.38 1.849-.976 6.82-2.35 1.988-.933 2.059-1.43 2.051-2.29v-.059c-.011-.867-.412-1.743-1.055-2.408L18.342 2.998A3.21 3.21 0 0 0 16 2zm12.834 21.002a1.798 1.798 0 0 0-.576.06c-.285.095-1.633.15-1.522 1.329 1.22.59 3.081 1.058 3.303-.121.167-.885-.569-1.24-1.205-1.268zM6.414 26.039c-.119.016-.2.074-.316.127-.93.425-1.552 1.319-.684 1.709.868.39 1.45-.024 2.211-.508.761-.484.739-.57.684-.758-.106.026-.797-.493-1.526-.57a1.6 1.6 0 0 0-.369 0z"/><path style="fill:#4f4f4f;fill-rule:evenodd" d="M15.998 1a3.21 3.21 0 0 0-2.342.998L1.996 14.041A3.556 3.556 0 0 0 1 16.449v.06c0 2.582 6.421.074 7.043 3.23C8.379 21.445 5 20.664 5 22.382c0 2.015 6.435.372 7.785 2.29 1.034 1.47-2.476 1.532-1.656 2.938.703 1.207 3.018.434 3.437 2.055.48 1.852 3.363 1.646 5.106.178 1.068-.9-1.211-1.465-.24-2.469.97-1.004 4.826-.814 4.568-2.994-.171-1.443-1.843-1.603-1.871-3.233-.097-1.38 1.849-.976 6.82-2.35 1.988-.933 2.059-1.43 2.051-2.29v-.059c-.011-.867-.412-1.743-1.055-2.408L18.342 1.998A3.21 3.21 0 0 0 16 1h-.002zm12.834 21.002a1.798 1.798 0 0 0-.576.06c-.285.095-1.633.15-1.522 1.329 1.22.59 3.081 1.058 3.303-.121.167-.885-.569-1.241-1.205-1.268zM6.414 25.039c-.119.016-.2.074-.316.127-.93.425-1.552 1.319-.684 1.709.868.39 1.45-.024 2.211-.508.761-.484.739-.57.684-.758-.106.026-.797-.493-1.526-.57a1.6 1.6 0 0 0-.369 0z"/><path style="opacity:.2;fill-rule:evenodd" d="M16.054 5.071c.88.008 3.29 2.991 5.441 5.225.605.812-.234 1.644-.234 1.644l-4.505-2.466-1.99 2.701-1.754-2.641-1.054 4.109-3.1-1.879.819-1.057 4.855-4.99c.373-.38.658-.652 1.522-.645z"/><path style="fill:#fff;fill-rule:evenodd" d="M16.054 4.071c.88.008 3.29 2.991 5.441 5.225.605.812-.234 1.644-.234 1.644l-4.505-2.466-1.99 2.701-1.754-2.641-1.054 4.109-3.1-1.879.819-1.057 4.855-4.99c.373-.38.658-.652 1.522-.645z"/><path style="fill:#fff;fill-rule:evenodd;opacity:.1" d="M15.998 1a3.21 3.21 0 0 0-2.342.998L1.996 14.041A3.556 3.556 0 0 0 1 16.449v.06c0 .14.027.257.063.368a3.55 3.55 0 0 1 .933-1.836l11.66-12.043A3.21 3.21 0 0 1 15.998 2H16c.854 0 1.686.32 2.342.998l11.603 12.043a3.687 3.687 0 0 1 1.014 2.07 2.81 2.81 0 0 0 .041-.603v-.059c-.011-.867-.412-1.743-1.055-2.408L18.342 1.998A3.21 3.21 0 0 0 16 1h-.002zm-8.07 19.402C7.34 21.25 5 20.951 5 22.382c0 .18.065.32.158.446.662-1.001 3.177-.605 2.885-2.09-.025-.125-.073-.227-.115-.336zm14.281 1.276a.892.892 0 0 0-.08.47c.025 1.505 1.437 1.77 1.79 2.934.08-.203.113-.433.081-.701-.15-1.268-1.457-1.548-1.791-2.703zm6.623.324a1.798 1.798 0 0 0-.576.06c-.285.095-1.633.15-1.522 1.329.098.047.216.082.32.127.392-.345 1.018-.394 1.202-.456.15-.048.364-.068.576-.06.416.018.871.18 1.092.535.045-.081.093-.16.113-.267.167-.885-.569-1.241-1.205-1.268zM6.414 25.039c-.119.016-.2.074-.316.127-.86.393-1.442 1.184-.838 1.61.2-.235.497-.454.838-.61.116-.053.197-.11.316-.127a1.6 1.6 0 0 1 .37 0c.328.035.64.161.904.285.68-.44.674-.535.62-.715-.105.026-.796-.493-1.525-.57a1.6 1.6 0 0 0-.369 0zm6.34.604c-.595.639-2.212.961-1.625 1.968.027.047.062.084.094.125.619-.658 2.325-.978 1.562-2.062-.008-.012-.022-.02-.031-.031zm6.648 2.767c-.497.554-.02.974.309 1.395.57-.524.026-.938-.309-1.395z"/></svg>
